src/assets/icons/tag.svg

<svg width="14" height="14" viewBox="0 0 14 14" fill="none" xmlns="http://www.w3.org/2000/svg">
<g id="tag">
<g clip-path="url(#clip0_156_4520)">
<path id="Vector" d="M7.27749 14C6.77032 14 6.26314 13.807 5.87706 13.4209L0.191942 7.7419C0.068219 7.61817 -0.00109863 7.45057 -0.00109863 7.27596V0.658101C-0.00109863 0.294829 0.293731 0 0.657002 0H7.27486C7.44948 0 7.61707 0.069321 7.73992 0.193044L13.425 5.87816C14.1928 6.64946 14.1928 7.90335 13.4259 8.67376L13.425 8.67552L8.67969 13.4209C8.29272 13.8061 7.78467 14 7.27749 14ZM1.31423 7.00307L6.8063 12.489C7.0669 12.7479 7.48896 12.7479 7.74869 12.489L12.494 7.74365C12.7503 7.4848 12.7503 7.0645 12.4932 6.80652L7.00197 1.31532H1.31423V7.00307ZM3.92908 5.02526C3.3245 5.02526 2.83224 4.533 2.83224 3.92843C2.83224 3.32385 3.3245 2.83159 3.92908 2.83159C4.53365 2.83159 5.02591 3.32385 5.02591 3.92843C5.02591 4.533 4.53365 5.02526 3.92908 5.02526Z" fill="black"/>
</g>
</g>
<defs>
<clipPath id="clip0_156_4520">
<rect width="14" height="14" fill="white"/>
</clipPath>
</defs>
</svg>

<svg xmlns="http://www.w3.org/2000/svg" fill="none" viewBox="0 0 14 14"><g clip-path="url(#a)"><path fill="#000" d="M7.277 14a1.97 1.97 0 0 1-1.4-.58L.192 7.743a.66.66 0 0 1-.193-.466V.658C-.001.295.294 0 .657 0h6.618c.174 0 .342.07.465.193l5.685 5.685a1.985 1.985 0 0 1 0 2.796v.002L8.68 13.42c-.387.385-.895.579-1.403.579M1.314 7.003l5.492 5.486c.26.259.683.259.943 0l4.745-4.745a.666.666 0 0 0 0-.937L7.001 1.315H1.314zM3.93 5.025a1.1 1.1 0 0 1-1.097-1.097c0-.604.493-1.096 1.097-1.096.605 0 1.097.492 1.097 1.096s-.492 1.097-1.097 1.097"/></g><defs><clipPath id="a"><path fill="#fff" d="M0 0h14v14H0z"/></clipPath></defs></svg>
